X: 305824
M: 6/8
L: 1/8
K: G
d |\
dBc def | gba gfe | dBc dBG | FAF DBc |\
dBc def | g2g (gf)e | (dc)B (Ad)F | [G2B,2][GB,] [G2B,2] H|]
"Minor Key."G/F/ |\
EGB e2f | g2g (gf)e | ^d2c B2e | ^d2c BAG |\
EGB e2e | g2g (gf)e | b2b ^d2d | e3 Bc"^D.C."^c |]



